build/system/ServerOutline.svg

<svg xmlns="http://www.w3.org/2000/svg" fill="none" viewBox="0 0 24 24" focusable="false"><path d="M0 0H24V24H0z"/><path fill="#74767B" fill-rule="evenodd" d="M16.9932 3C18.6499 3 19.9932 4.34326 19.9932 6L19.9932 18C19.9932 19.6567 18.6499 21 16.9932 21L7 21C5.34326 21 4 19.6567 4 18L4 6C4 4.34326 5.34326 3 7 3L16.9932 3ZM7 4.2998L16.9932 4.2998C17.9321 4.2998 18.6934 5.06104 18.6934 6L18.6934 11.3501L5.2998 11.3501L5.2998 6C5.2998 5.06104 6.06104 4.2998 7 4.2998ZM8 8C8 7.44775 8.44775 7 9 7C9.55225 7 10 7.44775 10 8C10 8.55225 9.55225 9 9 9C8.44775 9 8 8.55225 8 8ZM5.2998 12.6499L18.6934 12.6499L18.6934 18C18.6934 18.939 17.9321 19.7002 16.9932 19.7002L7 19.7002C6.06104 19.7002 5.2998 18.939 5.2998 18L5.2998 12.6499ZM9 15C8.44775 15 8 15.4478 8 16C8 16.5522 8.44775 17 9 17C9.55225 17 10 16.5522 10 16C10 15.4478 9.55225 15 9 15Z"/></svg>

<svg xmlns="http://www.w3.org/2000/svg" fill="none" viewBox="0 0 24 24" focusable="false"><path fill="#74767B" fill-rule="evenodd" d="M16.99 3c1.65 0 3 1.34 3 3v12c0 1.65-1.35 3-3 3H7c-1.66 0-3-1.35-3-3V6c0-1.66 1.34-3 3-3zM7 4.29h9.99c.94 0 1.7.77 1.7 1.71v5.35H5.29V6c0-.94.77-1.71 1.71-1.71M8 8c0-.56.44-1 1-1 .55 0 1 .44 1 1 0 .55-.45 1-1 1-.56 0-1-.45-1-1m-2.71 4.64h13.4V18c0 .93-.76 1.7-1.7 1.7H7c-.94 0-1.71-.77-1.71-1.7zM9 15c-.56 0-1 .44-1 1 0 .55.44 1 1 1 .55 0 1-.45 1-1 0-.56-.45-1-1-1"/></svg>
